X:1
T:Minuet in G Major
T:Minuet in G Major
T:BWV Anh. 114
T:Christian Petzold
C:Christian Petzold
%%score { 1 | ( 2 3 ) }
L:1/8
Q:1/4=120
M:3/4
K:G
V:1 treble nm="Piano" snm="Pno."
V:2 bass 
V:3 bass 
V:1
 d2 (GA)(Bc) | d2 G2 G2 | e2 (c/4B/4c/d) (ef) | g2 G2 G2 | (c/4B/4c3/2) (dc)(BA) | B2 (cB)(AG) | %6
 F2 (GA)(BG) | (B2 A4) | d2 (GA)(Bc) | d2 G2 G2 | e2 (c/4B/4c/d) (ef) | g2 G2 G2 | %12
 (c/4B/4c3/2) (dc)(BA) | B2 (cB)(AG) | A2 BAGF | G6 :: b2 (ga)bg | a2 (de)fd | g2 (ef)gd | %19
 ^c2 (Bc) A2 | (AB)(^cd)(ef) | (g2 f2) e2 | f2 A2 ^c2 | d6 | d2 (GF) G2 | e2 (GF) G2 | (d2 c2) B2 | %27
 (AG)(FG) A2 | (DEFG)(AB) | (c2 B/c/B) A2 | Bd G2 F2 | [B,DG]6 :| %32
V:2
 [G,B,D]4 A,2 | B,6 | C6 | B,6 | A,6 | G,6 | D2 B,2 G,2 | D2 D,C(B,A,) | B,4 A,2 | G,2 B,2 G,2 | %10
 C6 | B,2 (CB,)(A,G,) | A,4 F,2 | G,4 B,2 | (C2 D2) D,2 | G,4 G,,2 :: G,6 | F,6 | E,2 G,2 E,2 | %19
 A,4 A,,2 | A,6 | (B,2 D2) ^C2 | D2 F,2 A,2 | D2 D,2 C2 | B,4 B,2 | C4 D2 | (B,2 A,2) G,2 | D4 z2 | %28
 D,6 | (E,2 G,2) F,2 | G,2 B,,2 D,2 | G,2 D,2 G,,2 :| %32
V:3
 x6 | x6 | x6 | x6 | x6 | x6 | x6 | x6 | x6 | x6 | x6 | x6 | x6 | x6 | x6 | x6 :: x6 | x6 | x6 | %19
 x6 | x6 | x6 | x6 | x6 | z2 D4 | z2 E4 | x6 | x6 | z2 z2 F,2 | x6 | x6 | x6 :| %32

